X:1
T:C Major William Billings, 1794
T:Isaac Watts, 1717 (Psalm 84, Part 4)        66. 66. 44. 44. 
T:Adams
T:Transcribed from The Continental Harmony, 1794.
%%score [ 1 2 3 4 ]
L:1/8
Q:1/4=160
M:6/4
K:C
V:1 treble nm="Treble" snm="Tr."
V:2 treble nm="Counter" snm="C."
V:3 treble-8 nm="Tenor" snm="T."
V:4 bass nm="Bass" snm="B."
V:1
"^2. Lord   of          the   worlds a–bove,         How  pleasant  and  how  fair                 The   dwel–lings  of   thy     love,          Thy""^1. To       spend one  sa–cred     day            Where God and saints abide,                 Af   –  fords  di – vi  –  ner      joy           Than" c6 | %1
 e4 d2 (c2 f2) ed | e6- e4 e2 | (e2 c2) B2 (A2 d2) c2 | (B2 d2 B2 G4) G2 | (A2 B2) c2 (c2 f2) ed | %6
 e6- e4 f2 | %7
"^1. thousand  days  beside:                Where  God   re–sorts,  I    love        it     more    To   keep    the  door Than shine in courts.""^2. earth–ly  tem–ples  are!                 To           thine  a–bode  My heart   as – pires,  With warm de–sires  To   see  my   God." (g2 e2) c2 (d2 c2) d2 | %8
 e6- e6 |: c6 e4 f2 | (g2 e2) c2 (d2 B2) G2 | c4 c2 (d2 e2) f2 | (g2 e2) c2 (d2 c2) d2 | %13
 (e2 g2 e2 c6) :| %14
V:2
"^3. The    spar – row  for   her      young      With  pleasure  seeks  a  nest,                And    wandering swallows long         To""^4. O          hap  –  py  souls  that   pray         Where  God appoints to hear!               O         hap  –  py  men  that    pay       Their" G6 | %1
 G4 F2 (E2 A2) G2 | G6- G4 G2 | (G2 F2) E2 (E2 A2) G2 | G6- G4 GF | E4 F2 (G2 A2) G2 | G6- G4 F2 | %7
"^3. find  their  wonted  rest:                   My      spi – rit     faints  With e – qual zeal   To rise     and dwell  A – mong thy saints.""^4. constant   service   there!                They praise thee still     And  hap–py  they  That  love  the   way  To   Zi   –   on's hill." (E2 G2) E2 A4 G2 | %8
 G6- G6 |: G6 G4 F2 | (E2 G2) A2 G4 G2 | (G2 E2) C2 G4 F2 | (E2 G2) E2 A4 G2 | (G2 E2 G2 G6) :| %14
V:3
"^5. They go from strength to strength,    Through this dark vale of tears,             Till      each   ar – rives  at       length,    Till""^6. God     is       our  sun   and   shield,      Our   light  and  our  de – fense;             With  gifts    his  hands are   filled,      We" c6 | %1
 (c2 B2) A2 (G2 c2) B2 | c6- c4 c2 | (G2 c2) B2 (c2 f2) e2 | d6- d4 d2 | (c2 B2) A2 (G2 c2) B2 | %6
 c6- c4 c2 | %7
"^5. each  in  heav'n  appears:                O        glorious   seat,  When God our  King  Shall thither  bring  Our willing  feet!""^6. draw our blessings thence:             He      shall be–stow    On     Ja – cob's   race  Pe – cu – liar   grace  And glo – ry  too." (c2 e2) g2 (f2 e2) d2 | %8
 c6- c6 |: c6 (c2 B2) A2 | (G2 c2) c2 (d2 B2) d2 | (c2 e2) e2 (d2 B2) d2 | (c2 e2) g2 (f2 e2) d2 | %13
 c6- c6 :| %14
V:4
"^7. The     Lord  his  peo – ple     loves;        His hand no good withholds               From   those  his  heart ap–proves,      From" C,6 | %1
 C,4 D,2 (E,2 F,2) G,2 | C,6- C,4 C,2 | (E,2 F,2) G,2 (A,2 F,2) C,2 | G,6- G,4 G,2 | %5
 (A,2 G,2) F,2 (E,2 F,2) G,2 | C,6- C,4 F,2 | %7
"^7. pure  and  pious     souls:                 Thrice happy    he,       O   God     of   hosts,   Whose  spirit  trusts  A–lone   in     thee." (E,2 C,2) E,2 F,4 G,2 | %8
 C,6- C,6 |: C,6 C,4 D,2 | E,4 F,2 G,4 G,2 | C,4 E,2 (G,2 E,2) F,2 | (E,2 C,2) E,2 F,4 G,2 | %13
 C,6- C,6 :| %14

